X:1
T:Sarabande
T:Sarabande
T:G.F. HAENDEL
C:G.F. HAENDEL
%%score 1 2
L:1/8
M:3/2
K:C
V:1 treble nm="Vln" snm="Vln."
V:2 bass nm="Cello" snm="Vc."
V:1
 F4 F4 z2 G2 | E4 E4 z4 | A4 A4 z2 _B2 | G4 G4 z2 A2 | _B4 B4 z2 c2 | A4 A4 z2 A2 | d4 d4 z2 e2 | %7
 ^c4 c4 z4 | F4 F4 z2 G2 | E4 E4 z4 | A4 A4 z2 _B2 | G4 G4 z2 A2 | _B4 B4 z2 c2 | A8 z2 ^c2 | %14
 d2 e2 f4 e2 d2 | d8 z4 | F6 A2 G2 F2 | E8 z4 | A6 c2 _B2 A2 | G8 z2 A2 | _B6 d2 c2 B2 | A8 z2 A2 | %22
 d6 f2 e2 d2 | ^c8 z4 | F4 F4 z2 G2 | E4 E4 z4 | A4 A4 z2 _B2 | G4 G4 z2 A2 | _B4 B4 z2 c2 | %29
 A4 A4 z2 A2 | d4 d4 z2 e2 | ^c4 c4 z4 | F4 F4 z2 G2 | E4 E4 z4 | A4 A4 z2 _B2 | G4 G4 z2 A2 | %36
 _B4 B4 z2 c2 | A8 z2 ^c2 | d2 e2 f4 e2 d2 | d8 z4 |] %40
V:2
 D,4 D,,4 z4 | A,,6 _B,,2 A,,2 G,,2 | F,,4 F,,4 z4 | C,6 C,2 _B,,2 A,,2 | G,,4 G,4 G,,4 | %5
 D,4 D,4 z2 C,2 | _B,,4 _B,4 z4 | A,4 A,,4 F,2 E,2 | D,4 D,,4 z4 | A,,6 _B,,2 A,,2 G,,2 | %10
 F,,4 F,,4 z4 | C,6 C,2 _B,,2 A,,2 | G,,2 G,2 E,2 G,2 C,2 E,2 | F,6 D,2 _B,4 | G,4 A,4 A,,4 | %15
 D,4 D,,4 z4 | D,4 F,4 D,4 | A,4 A,,2 G,2 A,2 E,2 | F,4 A,4 F,4 | C4 C,2 _B,2 C2 F,2 | %20
 G,4 _B,4 G,4 | D4 D,4 z2 C2 | _B,4 _B,,4 B,4 | A,6 G,2 F,2 E,2 | D,4 D,,4 z4 | %25
 A,,6 _B,,2 A,,2 G,,2 | F,,4 F,,4 z4 | C,6 C,2 _B,,2 A,,2 | G,,4 G,4 G,,4 | D,4 D,4 z2 C,2 | %30
 _B,,4 _B,4 z4 | A,4 A,,4 F,2 E,2 | D,4 D,,4 z4 | A,,6 _B,,2 A,,2 G,,2 | F,,4 F,,4 z4 | %35
 C,6 C,2 _B,,2 A,,2 | G,,2 G,2 E,2 G,2 C,2 E,2 | F,6 D,2 _B,4 | G,4 A,4 A,,4 | D,4 D,,4 z4 |] %40

